assets/svgs/valentine-grey/ValentineGrey18.svg

<svg xmlns="http://www.w3.org/2000/svg" data-name="Layer 1" viewBox="0 0 128 128"><path d="M52.057 67.991l11.06 11.06a1.25 1.25 0 001.768 0l11.06-11.06a1.209 1.209 0 00.155-.191A9.061 9.061 0 0064 54.448a9.061 9.061 0 00-12.1 13.347 1.241 1.241 0 00.157.196zm1.973-10.855a6.54 6.54 0 019.118-.155 1.251 1.251 0 001.705 0 6.561 6.561 0 019.281 9.265 1.251 1.251 0 00-.093.112L64 76.4 53.96 66.359a1.193 1.193 0 00-.094-.113 6.541 6.541 0 01.163-9.109z"/><path d="M87 26.836H41a1.25 1.25 0 00-1.25 1.25v71.828a1.25 1.25 0 001.25 1.25h46a1.25 1.25 0 001.25-1.25V28.086a1.25 1.25 0 00-1.25-1.25zM42.25 98.664V34.917H81a1.25 1.25 0 000-2.5H42.25v-3.081h43.5v60.787H47a1.25 1.25 0 100 2.5h38.75v6.041z"/><path d="M64 94.1a1.621 1.621 0 101.621 1.621A1.623 1.623 0 0064 94.1z"/></svg>

<svg id="Layer_1" data-name="Layer 1" xmlns="http://www.w3.org/2000/svg" viewBox="0 0 128 128"><title>VALENTINE PHONE</title><path d="M52.057,67.991l11.06,11.06a1.25,1.25,0,0,0,1.768,0l11.06-11.06A1.209,1.209,0,0,0,76.1,67.8,9.061,9.061,0,0,0,64,54.448,9.061,9.061,0,0,0,51.9,67.795,1.241,1.241,0,0,0,52.057,67.991Zm1.973-10.855a6.54,6.54,0,0,1,9.118-.155,1.251,1.251,0,0,0,1.705,0,6.561,6.561,0,0,1,9.281,9.265,1.251,1.251,0,0,0-.093.112L64,76.4,53.96,66.359a1.193,1.193,0,0,0-.094-.113A6.541,6.541,0,0,1,54.029,57.137Z"/><path d="M87,26.836H41a1.25,1.25,0,0,0-1.25,1.25V99.914a1.25,1.25,0,0,0,1.25,1.25H87a1.25,1.25,0,0,0,1.25-1.25V28.086A1.25,1.25,0,0,0,87,26.836ZM42.25,98.664V34.917H81a1.25,1.25,0,0,0,0-2.5H42.25V29.336h43.5V90.123H47a1.25,1.25,0,1,0,0,2.5H85.75v6.041Z"/><path d="M64,94.1a1.621,1.621,0,1,0,1.621,1.621A1.623,1.623,0,0,0,64,94.1Z"/></svg>
